icons/svg/road_shields/h_white_pillow_5_road_shield.svg

<?xml version="1.0" encoding="UTF-8" standalone="no"?>
<!-- Generator: Adobe Illustrator 16.0.4, SVG Export Plug-In . SVG Version: 6.00 Build 0)  -->

<svg
   xmlns:dc="http://purl.org/dc/elements/1.1/"
   xmlns:cc="http://creativecommons.org/ns#"
   xmlns:rdf="http://www.w3.org/1999/02/22-rdf-syntax-ns#"
   xmlns:svg="http://www.w3.org/2000/svg"
   xmlns="http://www.w3.org/2000/svg"
   xmlns:sodipodi="http://sodipodi.sourceforge.net/DTD/sodipodi-0.dtd"
   xmlns:inkscape="http://www.inkscape.org/namespaces/inkscape"
   version="1.1"
   id="Слой_1"
   x="0px"
   y="0px"
   width="41"
   height="27"
   viewBox="0 0 41 27"
   enable-background="new 0 0 17.143 17.17"
   xml:space="preserve"
   inkscape:version="0.91 r13725"
   sodipodi:docname="h_white_pillow_5_road_shield.svg"><metadata
     id="metadata13"><rdf:RDF><cc:Work
         rdf:about=""><dc:format>image/svg+xml</dc:format><dc:type
           rdf:resource="http://purl.org/dc/dcmitype/StillImage" /><dc:title></dc:title></cc:Work></rdf:RDF></metadata><defs
     id="defs11" /><sodipodi:namedview
     pagecolor="#ffffff"
     bordercolor="#666666"
     borderopacity="1"
     objecttolerance="10"
     gridtolerance="10"
     guidetolerance="10"
     inkscape:pageopacity="0"
     inkscape:pageshadow="2"
     inkscape:window-width="1920"
     inkscape:window-height="1006"
     id="namedview9"
     showgrid="false"
     inkscape:zoom="16"
     inkscape:cx="-7.450957"
     inkscape:cy="18.378792"
     inkscape:window-x="1920"
     inkscape:window-y="0"
     inkscape:window-maximized="1"
     inkscape:current-layer="Слой_1" /><path
     style="color:#000000;clip-rule:evenodd;display:inline;overflow:visible;visibility:visible;opacity:0.70400002;isolation:auto;mix-blend-mode:normal;color-interpolation:sRGB;color-interpolation-filters:linearRGB;solid-color:#000000;solid-opacity:1;fill:#515151;fill-opacity:1;fill-rule:evenodd;stroke:none;stroke-width:2.11525011;stroke-linecap:butt;stroke-linejoin:miter;stroke-miterlimit:4;stroke-dasharray:none;stroke-dashoffset:0;stroke-opacity:1;marker:none;color-rendering:auto;image-rendering:auto;shape-rendering:auto;text-rendering:auto;enable-background:accumulate"
     d="M 20.602822,3.9613246 C 8.8686402,3.8816513 1.4080729,7.4226443 1.4080729,7.4226443 0.83666165,7.5906946 0.48668179,7.8939882 0.48632803,8.2214314 l 0,10.5588866 c -2.179e-5,0.334532 0.36478616,0.643369 0.95569017,0.809061 0,0 7.5353176,3.450621 19.1373028,3.450621 11.601984,0 18.949297,-3.457042 18.949297,-3.457042 0.57883,-0.16715 0.93448,-0.472518 0.934801,-0.80264 l 0,-10.5588866 c -2.39e-4,-0.332817 -0.361587,-0.6402737 -0.947856,-0.8064925 0,0 -7.22662,-3.3742675 -18.912741,-3.4536143 z"
     id="path4152"
     inkscape:connector-curvature="0"
     sodipodi:nodetypes="sccccsccccs" /><path
     style="color:#000000;clip-rule:evenodd;display:inline;overflow:visible;visibility:visible;opacity:1;isolation:auto;mix-blend-mode:normal;color-interpolation:sRGB;color-interpolation-filters:linearRGB;solid-color:#000000;solid-opacity:1;fill:#ffffff;fill-opacity:1;fill-rule:evenodd;stroke:none;stroke-width:1;stroke-linecap:butt;stroke-linejoin:miter;stroke-miterlimit:4;stroke-dasharray:none;stroke-dashoffset:0;stroke-opacity:1;marker:none;color-rendering:auto;image-rendering:auto;shape-rendering:auto;text-rendering:auto;enable-background:accumulate"
     d="m 1.5020568,8.5456054 c 0,0 7.2763118,-3.5759506 19.0823342,-3.4994994 11.806019,0.076451 18.8633,3.4994994 18.8633,3.4994994 l 0,9.9099976 c 0,0 -7.175425,3.499499 -18.8633,3.499499 -11.6878788,0 -19.0823341,-3.499499 -19.0823341,-3.499499 z"
     id="rect4135"
     inkscape:connector-curvature="0"
     sodipodi:nodetypes="czcczcc" /></svg>

<svg width="41" height="27" viewBox="0 0 41 27" fill="none" xmlns="http://www.w3.org/2000/svg">
<path opacity="0.704" fill-rule="evenodd" clip-rule="evenodd" d="M20.6028 3.96135C8.86864 3.88167 1.40807 7.42267 1.40807 7.42267C0.836662 7.59072 0.486682 7.89401 0.486328 8.22145V18.7803C0.486306 19.1149 0.851114 19.4237 1.44202 19.5894C1.44202 19.5894 8.97734 23.04 20.5793 23.04C32.1813 23.04 39.5286 19.583 39.5286 19.583C40.1074 19.4158 40.4631 19.1105 40.4634 18.7803V8.22145C40.4632 7.88864 40.1018 7.58118 39.5156 7.41496C39.5156 7.41496 32.2889 4.04069 20.6028 3.96135V3.96135Z" fill="#515151"/>
<path fill-rule="evenodd" clip-rule="evenodd" d="M1.50206 8.54563C1.50206 8.54563 8.77837 4.96968 20.5844 5.04613C32.3904 5.12258 39.4477 8.54563 39.4477 8.54563V18.4556C39.4477 18.4556 32.2723 21.9551 20.5844 21.9551C8.89652 21.9551 1.50206 18.4556 1.50206 18.4556L1.50206 8.54563Z" fill="white"/>
</svg>
